X:1
T:God save the queen
T:God save the Queen
%%score [ 1 2 3 4 ]
L:1/8
Q:1/4=80
M:3/4
K:Bb
V:1 treble nm="Soprano"
V:2 treble nm="Alto"
V:3 treble-8 nm="Tenor"
V:4 bass nm="Bass"
V:1
 B2 B2 c2 | A3 B c2 | d2 d2 e2 | d3 c B2 | c2 B2 A2 | B4 z2 | f2 f2 f2 | f3 e d2 | e2 e2 e2 | %9
w: God save our|gra- cious Queen,|Long live our|no- ble Queen,|God save the|Queen!|Send her vic-|to- ri- ous,|Hap- py and|
 e3 d c2 | d2 (ed) (cB) | d3 e f2 | (gf/e/) (d2 c3/2) B/ | B6 |] %14
w: Glo- ri- ous,|Long to _ reign _|o- ver us,|God _ _ save _ the|Queen.|
V:2
 F2 F2 G2 | F3 =E F2 | F2 G2 G2 | F3 _E D2 | G2 F2 [EF]2 | [DF]4 z2 | D2 F2 B2 | B3 A B2 | %8
w: God save our|gra- cious Queen,|Long live our|no- ble Queen,|God save the|Queen!|Send her vic-|to- ri- ous,|
 A2 F2 A2 | [Ac]3 B A2 | B2 (AB) (FB) | B3 A B2 | (BG) (F2 E3/2) D/ | D6 |] %14
w: Hap- py and|Glo- ri- ous,|Long to _ reign _|o- ver us,|God _ save _ the|Queen.|
V:3
 d2 d2 c2 | c3 c c2 | B2 B2 G2 | B3 A B2 | e2 d2 c2 | B4 z2 | B2 B2 d2 | d3 c B2 | c2 c2 f2 | %9
w: God save our|gra- cious Queen,|Long live our|no- ble Queen,|God save the|Queen!|Send her vic-|to- ri- ous,|Hap- py and|
 f3 f f2 | f2 f2 f2 | f3 e (dB) | B2 (B2 A3/2) B/ | B6 |] %14
w: Glo- ri- ous,|Long to reign|o- ver us, _|God save _ the|Queen.|
V:4
 B,,2 D,2 E,2 | F,3 G, A,2 | B,2 G,2 E,2 | F,3 ^F, G,2 | E,2 =F,2 F,,2 | B,,4 z2 | B,,2 D,2 F,2 | %7
w: God save our|gra- cious Queen,|Long live our|no- ble Queen,|God save the|Queen!|Send her vic-|
 B,3 F, B,,2 | F,2 A,2 C2 | F,3 F, F,2 | B,2 (CB,) (A,G,) | (F,E,D,) C, (B,,D,) | %12
w: to- ri- ous,|Hap- py and|Glo- ri- ous,|Long to _ reign _|o- * * ver us, _|
 E,2 F,2 [F,,F,]2 | B,,6 |] %14
w: God save the|Queen.|

